X:1
T:Mary Had A Little Lamb
T:Mary Had A Little Lamb
T:arr. Marc Sabatella
C:arr. Marc Sabatella
%%score { ( 1 3 ) | ( 2 4 ) }
L:1/8
Q:1/4=108
M:4/4
K:C
V:1 treble nm="Piano"
V:3 treble 
V:2 bass 
V:4 bass 
V:1
"C" [G,CE]2 [F,D]2"Am7" [E,G,C]2"D7/A" [^F,D]2 |"Gm7" E2 E2"C7" [_B,E]4 |"F" D2 D2"Bb7" [_A,D]4 | %3
"Em7" E2"A7b9" G2"Dm7""G7b9" G4 |"C" [G,CE]2"C7/E" [E,_B,D]2"Fm" [G,_A,C]2 [F,D]2 | %5
"C/G" [CE]2"E7b9/G#" [=B,E]2"Am7" [CE]2 [CE]2 |"D7" [CD]2 [CD]2"G7b9" [A,CE]2 [_A,B,D]2 | %7
"C" [E,G,C]8 |] %8
V:2
"" C,,G,, C,2"" A,,,E,, A,,2 |"" G,,,D,, G,,2"" C,,G,, C,2 |"" F,,,C,, F,,2"" _B,,,F,, _B,,2 | %3
"" E,,=B,,"" A,,2"" D,F,"" G,,2 |"" C,,G,,"" C,2"" F,,C,, F,,,2 | %5
"" G,,,G,,""^G,,,^G,,"" A,,,E,, A,,2 |"" D,,A,, D,2"" =G,,,D,, =G,,2 |"" C,,G,,C,D, E,4 |] %8
V:3
 x8 | [=F,_B,]4 G,2 ^G,2 | [=G,A,]4 C2 _B,2 | [G,=B,D]2 [_B,^C]2 [=A,=C]2 [_A,=B,]2 | x8 | %5
 G,2 F,2 B,=A, G,2 | G,2 ^F,2 =F,4 | x8 |] %8
V:4
 x8 | x8 | x8 | x8 | x8 | x8 | x8 | C,,8 |] %8

